X: 11504
T: Eddie Kelly's
R: reel
M: 4/4
K: Dminor
dc|:AGEC D3C|~A,3C DEFD|EFFE FADF|Adfe d3c|
AGEC ~A,3=B,|CB,CD E2GA|dfed cGAc|1 BAGE FDdc:|2 BAGE FDD2||
|:dfec Adde|~f2df ecce|fdd^c defd|eggf edce|
~f3e defd|~g2ag gecf|ecc=B ~c3c|1 BAGE FDD2:|2 BAGE FDdc||

